X: 69
T: Aldın Dil-i Nâşâdımı
C: Ali Bey (Enderûnî)
O: Turkey
F: http://compmusic.upf.edu/node/140
N: karcigar--sarki--aksak--aldin_dil-i--enderuni_ali_bey
N: makam= karcigar
N: form= sarki
N: usul= aksak = 9/8
M: 9/8
L: 1/16
K: C _2/4B _3/4e ^3/4f 
Q: 1/4=120
%%MIDI tuningsystem comma53
fgab c'2ba aggf gfed c2 | fg abd'c' baag fga4z2  | 
w:  ARANAĞME  |   | 
fgab c'2ba aggf gfed c2 | Bc defe dccB BAA4z2  | 
w:   |   | 
fgab c'2ba aggf gfed c2 | fg abd'c' baag fga4z2  | 
w:  ARANAĞME  |   | 
fgab c'2ba aggf gfed c2 | Bc defe dccB BAA4z2  | 
w:   |   | 
d4 gfed dccB c2d2 e2 | f2 eda2 gff_7/8e _3/4edde dedc  | 
w:  Al dın  *  *  *  dil_ *  *  *  i   |  nâ *  *  şâ *  *  dı *  *  *  mı    | 
d4 gfed dccB c2d2 e2 | f2 eda2 gff_7/8e _3/4edd3gfa  | 
w:  Al dın  *  *  *  dil_ *  *  *  i   |  nâ *  *  şâ *  *  dı *  *  *  mı   SAZ  | 
g4 g4 g4 g2{a}gf (3_7/8ed_3/4e | f2 eda2 gff_7/8e _3/4edd4e2  | 
w:  *  Â şık  çı *  kar  |  dın  *  *  a *  *  dı *  *  *  mı  a  | 
dccB BAAB c4 c2c3B | B2 A2fe dccB BAA4fg  | 
w:  man   *  *  *  Â *  *  *  şık  çı kar  |  dın  *  a *  *  *  dı *  *  *  mı   SAZ  | 
a2z2 g2a2 a4 a2a4 | g3a_b3aag gfc'b agfe  | 
w:  *  Kıl *  dın  fi gan   |  mû *  tâ *  dı *  mı  *  ah    | 
d4 g3a a4 a2a4 | g3a_b3aag gfb4ag  | \
w:  *  Kıl *  dın  fi gan   |  mû *  tâ *  dı *  mı  *  ah    | 
g4 g4 g4 g2{a}gf (3_7/8ed_3/4e | 
w:  *  Â şık  çı *  kar  | 
f2 eda2 gff_7/8e _3/4edd4e2  | dccB BAAB c4 c2c3B | 
w:  dın  *  *  a *  *  dı *  *  *  mı  a  |  man   *  *  *  Â *  *  *  şık  çı kar  | 
B2 A2fe dccB BAA4|
w:  dın  *  a *  *  *  dı *  *  *  mı    | 


